modules/coreui-icons-free/icons/line-style.svg

<!-- Generated by IcoMoon.io -->
<svg version="1.1" xmlns="http://www.w3.org/2000/svg" width="24" height="24" viewBox="0 0 24 24">
<title>line-style</title>
<path d="M0.75 0.75v4.875h22.5v-4.875zM21.75 4.125h-19.5v-1.875h19.5z"></path>
<path d="M11.25 6.75h-10.5v4.5h10.5zM9.75 9.75h-7.5v-1.5h7.5z"></path>
<path d="M12.75 11.25h10.5v-4.5h-10.5zM14.25 8.25h7.5v1.5h-7.5z"></path>
<path d="M7.125 12.75h-6.375v4.125h6.375zM5.625 15.375h-3.375v-1.125h3.375z"></path>
<path d="M9 16.875h6v-4.125h-6zM10.5 14.25h3v1.125h-3z"></path>
<path d="M16.875 16.875h6.375v-4.125h-6.375zM18.375 14.25h3.375v1.125h-3.375z"></path>
<path d="M3.221 18.307c0 0-0 0-0 0-1.365 0-2.471 1.106-2.471 2.471s1.106 2.471 2.471 2.471c1.365 0 2.471-1.106 2.471-2.471 0 0 0-0 0-0v0c-0.002-1.364-1.107-2.47-2.471-2.471h-0zM3.221 21.75c0 0-0 0-0 0-0.536 0-0.971-0.435-0.971-0.971s0.435-0.971 0.971-0.971c0.536 0 0.971 0.435 0.971 0.971v0c-0.001 0.536-0.435 0.971-0.971 0.971h-0z"></path>
<path d="M9.074 18.307c0 0-0 0-0 0-1.365 0-2.471 1.106-2.471 2.471s1.106 2.471 2.471 2.471c1.365 0 2.471-1.106 2.471-2.471 0 0 0-0 0-0v0c-0.002-1.364-1.107-2.47-2.471-2.471h-0zM9.074 21.75c0 0-0 0-0 0-0.536 0-0.971-0.435-0.971-0.971s0.435-0.971 0.971-0.971c0.536 0 0.971 0.435 0.971 0.971v0c-0.001 0.536-0.435 0.971-0.971 0.971h-0z"></path>
<path d="M14.926 18.307c-1.365 0-2.471 1.106-2.471 2.471s1.106 2.471 2.471 2.471c1.365 0 2.471-1.106 2.471-2.471 0 0 0-0 0-0v0c-0.002-1.364-1.107-2.47-2.471-2.471h-0zM14.926 21.75c-0.536-0-0.971-0.435-0.971-0.971s0.435-0.971 0.971-0.971c0.536 0 0.971 0.435 0.971 0.971v0c-0.001 0.536-0.435 0.971-0.971 0.971h-0z"></path>
<path d="M20.779 18.307c-1.365 0-2.471 1.106-2.471 2.471s1.106 2.471 2.471 2.471c1.365 0 2.471-1.106 2.471-2.471 0 0 0-0 0-0v0c-0.002-1.364-1.107-2.47-2.471-2.471h-0zM20.779 21.75c-0.536-0-0.971-0.435-0.971-0.971s0.435-0.971 0.971-0.971c0.536 0 0.971 0.435 0.971 0.971v0c-0.001 0.536-0.435 0.971-0.971 0.971h-0z"></path>
</svg>

<svg xmlns="http://www.w3.org/2000/svg" width="24" height="24" viewBox="0 0 24 24"><path d="M.75.75v4.875h22.5V.75zm21 3.375H2.25V2.25h19.5zM11.25 6.75H.75v4.5h10.5zm-1.5 3h-7.5v-1.5h7.5zM12.75 11.25h10.5v-4.5h-10.5zm1.5-3h7.5v1.5h-7.5zM7.125 12.75H.75v4.125h6.375zm-1.5 2.625H2.25V14.25h3.375zM9 16.875h6V12.75H9zm1.5-2.625h3v1.125h-3zM16.875 16.875h6.375V12.75h-6.375zm1.5-2.625h3.375v1.125h-3.375zM3.221 18.307a2.47 2.47 0 102.471 2.471 2.474 2.474 0 00-2.471-2.471zm0 3.443a.971.971 0 11.971-.971.972.972 0 01-.971.971zM9.074 18.307a2.47 2.47 0 102.471 2.471 2.474 2.474 0 00-2.471-2.471zm0 3.443a.971.971 0 11.971-.971.972.972 0 01-.971.971zM14.926 18.307a2.47 2.47 0 102.471 2.471 2.474 2.474 0 00-2.471-2.471zm0 3.443a.971.971 0 11.971-.971.972.972 0 01-.971.971zM20.779 18.307a2.47 2.47 0 102.471 2.471 2.474 2.474 0 00-2.471-2.471zm0 3.443a.971.971 0 11.971-.971.972.972 0 01-.971.971z"/></svg>
